apps/scalable/devhelp.svg

<svg xmlns="http://www.w3.org/2000/svg" style="isolation:isolate" width="256" height="256"><defs><filter id="a" width="270.648" height="254.338" x="-7.32" y="2.95" filterUnits="userSpaceOnUse"><feGaussianBlur xmlns="http://www.w3.org/2000/svg" in="SourceGraphic" stdDeviation="4.294"/><feOffset xmlns="http://www.w3.org/2000/svg" dy="4" result="pf_100_offsetBlur"/><feFlood xmlns="http://www.w3.org/2000/svg" flood-opacity=".4"/><feComposite xmlns="http://www.w3.org/2000/svg" in2="pf_100_offsetBlur" operator="in" result="pf_100_dropShadow"/><feBlend xmlns="http://www.w3.org/2000/svg" in="SourceGraphic" in2="pf_100_dropShadow"/></filter></defs><g filter="url(#a)"><linearGradient id="b" x1="-.033" x2="1.033" y1="-.071" y2=".995" gradientTransform="matrix(244.648 0 0 228.338 5.676 11.947)" gradientUnits="userSpaceOnUse"><stop offset="0%" stop-color="#e72662"/><stop offset="48.272%" stop-color="#ec3c50"/><stop offset="100%" stop-color="#ff7b66"/></linearGradient><path fill="url(#b)" d="M165.685 11.947c74.055 0 84.639 10.557 84.639 84.544v59.251c0 73.986-10.584 84.543-84.639 84.543h-75.37c-74.055 0-84.639-10.557-84.639-84.543V96.491c0-73.987 10.584-84.544 84.639-84.544h75.37z"/></g><path fill="#333" d="M50.617 238.279C12.4 232.693 4.841 213.275 5.676 155.742V96.491c0-57.915 6.485-76.964 44.822-82.508-.035 1.018.286 228.528.119 224.296z"/><path fill="#F1F0E9" d="M220 183.75q19 .125 29.519.01c-2.178 30.148-9.448 44.623-29.671 51.281q.027-6.791.152-51.291z"/><path fill="#FDC92B" d="M219.867 183.929l.008-57.554 30.538-.12-.027 29.79c-.01 10.584-.234 19.876-.825 28.031q-10.839-.129-29.694-.147z"/><path fill="#76C22B" d="M219.875 126.125V69.25q.062-3 .062-4.75 26.429-10.022 29.645 4.861c.541 7.929.742 16.926.742 27.13v29.625l-30.449.009z"/><path fill="#F22C42" d="M219.875 68.75q0-43.625-.004-51.551c20.281 6.686 27.525 21.245 29.672 51.61q-5.543-.184-29.668-.059z"/><g opacity=".4"><linearGradient id="c" x1=".517" x2=".517" y2="1"><stop offset="0%" stop-color="#fff"/><stop offset="12.5%" stop-opacity=".098" stop-color="#fff"/><stop offset="92.5%" stop-opacity=".098"/><stop offset="100%" stop-opacity=".498"/></linearGradient><path fill="none" stroke="url(#c)" stroke-linecap="round" stroke-linejoin="round" stroke-width="4.077" d="M165.685 11.947c74.055 0 84.639 10.557 84.639 84.544v59.251c0 73.986-10.584 84.543-84.639 84.543h-75.37c-74.055 0-84.639-10.557-84.639-84.543V96.491c0-73.987 10.584-84.544 84.639-84.544h75.37z" vector-effect="non-scaling-stroke"/></g><path fill="#F7F7F7" fill-rule="evenodd" d="M91 184.5V68h42.939q14.645 0 25.962 4.91 11.318 4.909 17.892 13.314 6.573 8.405 9.819 18.557 3.245 10.152 3.245 21.469 0 8.321-1.831 16.227-1.83 7.905-6.157 15.644-4.328 7.739-10.818 13.481-6.491 5.742-16.477 9.32-9.985 3.578-22.301 3.578H91zm25.297-24.132h19.639q14.313 0 21.469-10.235 7.156-10.236 7.156-23.883 0-13.647-6.906-23.966-6.907-10.318-19.889-10.318h-21.469v68.402z"/></svg>

<svg xmlns="http://www.w3.org/2000/svg" style="isolation:isolate" width="256" height="256" viewBox="0 0 256 256">
 <defs>
  <filter id="iGgTJIXSTwyZXnXeKO32a3CE1qsm8DBi" width="270.648" height="254.338" x="-7.32" y="2.95" filterUnits="userSpaceOnUse">
   <feGaussianBlur xmlns="http://www.w3.org/2000/svg" in="SourceGraphic" stdDeviation="4.294"/>
   <feOffset xmlns="http://www.w3.org/2000/svg" dx="0" dy="4" result="pf_100_offsetBlur"/>
   <feFlood xmlns="http://www.w3.org/2000/svg" flood-opacity=".4"/>
   <feComposite xmlns="http://www.w3.org/2000/svg" in2="pf_100_offsetBlur" operator="in" result="pf_100_dropShadow"/>
   <feBlend xmlns="http://www.w3.org/2000/svg" in="SourceGraphic" in2="pf_100_dropShadow" mode="normal"/>
  </filter>
 </defs>
 <g filter="url(#iGgTJIXSTwyZXnXeKO32a3CE1qsm8DBi)">
  <linearGradient id="_lgradient_33" x1="-.033" x2="1.033" y1="-.071" y2=".995" gradientTransform="matrix(244.648,0,0,228.338,5.676,11.947)" gradientUnits="userSpaceOnUse">
   <stop offset="0%" style="stop-color:rgb(231,38,98)"/>
   <stop offset="48.272%" style="stop-color:rgb(236,60,80)"/>
   <stop offset="100%" style="stop-color:rgb(255,123,102)"/>
  </linearGradient>
  <path fill="url(#_lgradient_33)" d="M 165.685 11.947 C 239.74 11.947 250.324 22.504 250.324 96.491 L 250.324 155.742 C 250.324 229.728 239.74 240.285 165.685 240.285 L 90.315 240.285 C 16.26 240.285 5.676 229.728 5.676 155.742 L 5.676 96.491 C 5.676 22.504 16.26 11.947 90.315 11.947 L 165.685 11.947 Z"/>
 </g>
 <path fill="#333333" d="M 50.617 238.279 C 12.4 232.693 4.841 213.275 5.676 155.742 L 5.676 96.491 C 5.676 38.576 12.161 19.527 50.498 13.983 C 50.463 15.001 50.784 242.511 50.617 238.279 Z"/>
 <path fill="#F1F0E9" d="M 220 183.75 Q 239 183.875 249.519 183.76 C 247.341 213.908 240.071 228.383 219.848 235.041 Q 219.875 228.25 220 183.75 Z"/>
 <path fill="#FDC92B" d="M 219.867 183.929 L 219.875 126.375 L 250.413 126.255 L 250.386 156.045 C 250.376 166.629 250.152 175.921 249.561 184.076 Q 238.722 183.947 219.867 183.929 Z"/>
 <path fill="#76C22B" d="M 219.875 126.125 L 219.875 69.25 Q 219.937 66.25 219.937 64.5 Q 246.366 54.478 249.582 69.361 C 250.123 77.29 250.324 86.287 250.324 96.491 L 250.324 126.116 L 219.875 126.125 Z"/>
 <path fill="#F22C42" d="M 219.875 68.75 Q 219.875 25.125 219.871 17.199 C 240.152 23.885 247.396 38.444 249.543 68.809 Q 244 68.625 219.875 68.75 Z"/>
 <g opacity=".4">
  <linearGradient id="_lgradient_34" x1=".517" x2=".517" y1="0" y2="1">
   <stop offset="0%" style="stop-color:rgb(255,255,255)"/>
   <stop offset="12.5%" stop-opacity=".098" style="stop-color:rgb(255,255,255)"/>
   <stop offset="92.5%" stop-opacity=".098" style="stop-color:rgb(0,0,0)"/>
   <stop offset="100%" stop-opacity=".498" style="stop-color:rgb(0,0,0)"/>
  </linearGradient>
  <path fill="none" stroke="url(#_lgradient_34)" stroke-linecap="round" stroke-linejoin="round" stroke-width="4.077" d="M 165.685 11.947 C 239.74 11.947 250.324 22.504 250.324 96.491 L 250.324 155.742 C 250.324 229.728 239.74 240.285 165.685 240.285 L 90.315 240.285 C 16.26 240.285 5.676 229.728 5.676 155.742 L 5.676 96.491 C 5.676 22.504 16.26 11.947 90.315 11.947 L 165.685 11.947 Z" vector-effect="non-scaling-stroke"/>
 </g>
 <path fill="#F7F7F7" fill-rule="evenodd" d="M 91 184.5 L 91 68 L 133.939 68 L 133.939 68 Q 148.584 68 159.901 72.91 L 159.901 72.91 L 159.901 72.91 Q 171.219 77.819 177.793 86.224 L 177.793 86.224 L 177.793 86.224 Q 184.366 94.629 187.612 104.781 L 187.612 104.781 L 187.612 104.781 Q 190.857 114.933 190.857 126.25 L 190.857 126.25 L 190.857 126.25 Q 190.857 134.571 189.026 142.477 L 189.026 142.477 L 189.026 142.477 Q 187.196 150.382 182.869 158.121 L 182.869 158.121 L 182.869 158.121 Q 178.541 165.86 172.051 171.602 L 172.051 171.602 L 172.051 171.602 Q 165.56 177.344 155.574 180.922 L 155.574 180.922 L 155.574 180.922 Q 145.589 184.5 133.273 184.5 L 133.273 184.5 L 91 184.5 Z M 116.297 160.368 L 135.936 160.368 L 135.936 160.368 Q 150.249 160.368 157.405 150.133 L 157.405 150.133 L 157.405 150.133 Q 164.561 139.897 164.561 126.25 L 164.561 126.25 L 164.561 126.25 Q 164.561 112.603 157.655 102.284 L 157.655 102.284 L 157.655 102.284 Q 150.748 91.966 137.766 91.966 L 137.766 91.966 L 116.297 91.966 L 116.297 160.368 Z"/>
</svg>
